symbols/web/vertical_align_bottom/materialsymbolsoutlined/vertical_align_bottom_wght700grad200_24px.svg

<svg xmlns="http://www.w3.org/2000/svg" height="24" width="24"><path d="M3.25 22.15v-3.4h17.5v3.4Zm8.75-5.4-6-6.025 2.375-2.35L10.3 10.3V1.85h3.4v8.45l1.925-1.925L18 10.75Z"/></svg>

<svg xmlns="http://www.w3.org/2000/svg" height="24" width="24"><path d="M3.25 22.15V18.75H20.75V22.15ZM12 16.75 6 10.725 8.375 8.375 10.3 10.3V1.85H13.7V10.3L15.625 8.375L18 10.75Z"/></svg>
